svg/300/sharp/splitscreen_add.svg

<svg xmlns="http://www.w3.org/2000/svg" width="48" height="48" viewBox="0 -960 960 960"><path d="M185.385-185.385v-192.616 23.153-2.846 172.309Zm-45.384 45.384v-283.383h679.998v45.383H185.385v192.616h416.921v45.384H140.001Zm0-396.845v-283.153h679.998v283.153H140.001Zm45.384-45.384h589.23v-192.385h-589.23v192.385Zm0 0v-192.385 192.385Zm589.23 442.229h-84.616v-45.384h84.616v-84.616h45.384v84.616h84.615v45.384h-84.615v84.615h-45.384V-140Z"/></svg>

<svg xmlns="http://www.w3.org/2000/svg" width="48" height="48" viewBox="0 -960 960 960"><path d="M185.39-185.39V-378v23.15-2.84 172.3ZM140-140v-283.38h680V-378H185.39v192.61h416.92V-140H140Zm0-396.85V-820h680v283.15H140Zm45.39-45.38h589.22v-192.38H185.39v192.38Zm0 0v-192.38 192.38ZM774.61-140H690v-45.39h84.61V-270H820v84.61h84.61V-140H820v84.61h-45.39V-140Z"/></svg>
